{"compressionlevel":-1,"height":18,"width":25,"infinite":false,"orientation":"orthogonal","renderorder":"right-down","tiledversion":"1.12.1","type":"map","version":"1.10","tilewidth":16,"tileheight":16,"nextlayerid":3,"nextobjectid":4,"tilesets":[{"columns":12,"firstgid":1,"image":"../kenney/Tilemap/tilemap_packed.png","imageheight":176,"imagewidth":192,"margin":0,"spacing":0,"name":"kenney_tiny_dungeon","tilecount":132,"tileheight":16,"tilewidth":16}],"layers":[{"id":1,"name":"Tile Layer 1","type":"tilelayer","visible":true,"opacity":1,"x":0,"y":0,"width":25,"height":18,"data":[15,15,15,15,15,15,15,15,15,15,15,15,15,15,15,15,15,15,15,15,15,15,15,15,15,15,49,49,49,49,50,49,49,49,49,49,49,49,49,49,49,49,49,50,50,49,49,50,49,15,15,49,50,49,49,50,50,49,49,49,49,49,49,49,49,49,49,49,49,49,49,49,49,49,15,15,56,56,56,56,56,56,56,56,56,56,56,56,56,56,56,56,56,56,56,56,56,56,56,15,15,49,49,49,56,49,49,49,50,49,49,49,49,49,49,50,50,49,49,56,50,49,50,49,15,15,49,49,49,49,49,49,49,49,50,49,49,49,49,50,49,50,49,49,50,49,50,49,49,15,15,49,50,49,49,49,49,49,49,49,49,49,50,49,49,50,50,50,49,49,49,49,49,49,15,15,50,49,49,56,56,56,56,56,49,49,50,49,49,49,49,56,56,56,56,56,49,49,49,15,15,49,50,49,49,49,49,49,49,49,49,49,56,50,49,49,50,49,49,49,49,49,49,49,15,15,49,50,50,49,49,49,49,49,50,49,49,56,49,49,49,49,49,49,49,49,49,50,49,15,15,49,50,50,49,50,49,49,49,49,49,49,56,49,49,49,50,49,49,49,49,49,49,49,15,15,49,49,49,56,56,56,56,56,49,49,50,49,49,50,49,56,56,56,56,56,49,49,49,15,15,49,50,49,49,49,49,49,49,49,50,49,49,49,50,49,50,49,49,49,49,49,49,49,15,15,49,49,49,56,49,49,49,49,49,49,50,49,49,49,49,49,49,50,56,49,49,49,50,15,15,49,49,49,49,49,49,49,49,49,49,49,50,50,49,49,49,50,50,49,49,50,50,49,15,15,49,49,49,49,49,49,49,49,49,50,49,49,49,49,49,49,50,49,49,50,49,49,50,15,15,49,49,49,49,49,49,49,49,49,49,50,49,49,49,49,49,49,49,49,49,49,49,49,15,15,15,15,15,15,15,15,15,15,15,15,15,46,15,15,15,15,15,15,15,15,15,15,15,15]},{"id":2,"name":"Objects","type":"objectgroup","visible":true,"opacity":1,"x":0,"y":0,"draworder":"topdown","objects":[{"id":1,"name":"spawn_from_room3","type":"spawn","rotation":0,"visible":true,"x":192,"y":240,"width":16,"height":16},{"id":2,"name":"door_south","type":"door","rotation":0,"visible":true,"x":192,"y":272,"width":16,"height":16,"properties":[{"name":"target","type":"string","value":"room3"},{"name":"spawn","type":"string","value":"spawn_from_boss"}]},{"id":3,"name":"boss","type":"enemy","rotation":0,"visible":true,"x":192,"y":80,"width":16,"height":16,"properties":[{"name":"kind","type":"string","value":"boss"}]}]}]}