{"compressionlevel": -1, "height": 18, "width": 25, "infinite": false, "orientation": "orthogonal", "renderorder": "right-down", "tiledversion": "1.12.1", "type": "map", "version": "1.10", "tilewidth": 16, "tileheight": 16, "nextlayerid": 3, "nextobjectid": 10, "tilesets": [{"columns": 12, "firstgid": 1, "image": "../kenney/Tilemap/tilemap_packed.png", "imageheight": 176, "imagewidth": 192, "margin": 0, "spacing": 0, "name": "kenney_tiny_dungeon", "tilecount": 132, "tileheight": 16, "tilewidth": 16}], "layers": [{"id": 1, "name": "Tile Layer 1", "type": "tilelayer", "visible": true, "opacity": 1, "x": 0, "y": 0, "width": 25, "height": 18, "data": [15, 15, 15, 15, 15, 15, 15, 15, 15, 15, 15, 15, 15, 15, 15, 15, 15, 15, 15, 15, 15, 15, 15, 15, 15, 15, 49, 49, 50, 49, 49, 50, 49, 49, 49, 49, 49, 56, 49, 49, 49, 49, 49, 50, 49, 49, 49, 49, 49, 15, 15, 49, 49, 49, 49, 49, 49, 49, 49, 49, 49, 49, 56, 49, 49, 49, 49, 49, 50, 49, 50, 49, 49, 49, 15, 15, 49, 49, 49, 49, 49, 49, 49, 49, 49, 49, 49, 56, 50, 49, 49, 49, 49, 49, 49, 49, 49, 50, 49, 15, 15, 49, 49, 49, 56, 56, 56, 56, 49, 56, 56, 56, 56, 56, 56, 56, 49, 56, 56, 56, 56, 49, 49, 49, 15, 15, 49, 49, 49, 49, 49, 49, 49, 49, 50, 49, 49, 49, 49, 49, 49, 49, 50, 49, 49, 50, 49, 49, 49, 15, 15, 49, 49, 50, 49, 49, 49, 49, 49, 49, 50, 49, 49, 50, 49, 49, 49, 49, 49, 49, 49, 49, 49, 50, 15, 15, 49, 49, 49, 49, 50, 49, 49, 50, 49, 50, 49, 50, 49, 49, 49, 49, 49, 50, 49, 49, 49, 50, 49, 15, 15, 49, 49, 49, 56, 49, 56, 56, 56, 56, 56, 56, 49, 56, 56, 56, 56, 56, 56, 49, 56, 49, 49, 49, 15, 49, 49, 50, 49, 49, 49, 49, 49, 49, 49, 49, 49, 49, 50, 49, 49, 49, 49, 50, 50, 49, 49, 49, 49, 49, 15, 49, 49, 49, 49, 49, 49, 49, 49, 49, 49, 49, 49, 49, 50, 49, 49, 50, 49, 50, 49, 49, 49, 49, 15, 15, 49, 49, 49, 49, 49, 49, 49, 49, 50, 49, 49, 49, 50, 49, 49, 50, 50, 49, 49, 50, 49, 49, 49, 15, 15, 50, 49, 49, 56, 56, 56, 49, 56, 56, 56, 56, 56, 56, 56, 56, 56, 49, 56, 56, 56, 49, 49, 50, 15, 15, 49, 49, 49, 49, 49, 49, 49, 49, 49, 56, 49, 49, 49, 49, 49, 49, 49, 49, 49, 49, 49, 49, 49, 15, 15, 49, 49, 49, 49, 49, 49, 49, 49, 50, 56, 50, 49, 49, 49, 50, 49, 49, 49, 50, 49, 49, 49, 50, 15, 15, 49, 49, 49, 49, 49, 49, 50, 49, 49, 56, 50, 49, 49, 49, 49, 49, 49, 49, 49, 49, 50, 50, 50, 15, 15, 49, 49, 49, 49, 49, 49, 49, 49, 49, 56, 50, 49, 49, 49, 49, 49, 49, 49, 49, 49, 49, 49, 49, 15, 15, 15, 15, 15, 15, 15, 15, 15, 15, 15, 15, 15, 15, 15, 15, 15, 15, 15, 15, 15, 15, 15, 15, 15, 15]}, {"id": 2, "name": "Objects", "type": "objectgroup", "visible": true, "opacity": 1, "x": 0, "y": 0, "draworder": "topdown", "objects": [{"id": 1, "name": "spawn_from_l2room1", "type": "spawn", "x": 32, "y": 144, "width": 16, "height": 16, "rotation": 0, "visible": true, "point": false}, {"id": 2, "name": "spawn_from_l2room3", "type": "spawn", "x": 352, "y": 144, "width": 16, "height": 16, "rotation": 0, "visible": true, "point": false}, {"id": 3, "name": "door_west", "type": "door", "x": 0, "y": 144, "width": 16, "height": 16, "rotation": 0, "visible": true, "point": false, "properties": [{"name": "target", "type": "string", "value": "l2room1"}, {"name": "spawn", "type": "string", "value": "spawn_from_l2room2"}]}, {"id": 4, "name": "door_east", "type": "door", "x": 384, "y": 144, "width": 16, "height": 16, "rotation": 0, "visible": true, "point": false, "properties": [{"name": "target", "type": "string", "value": "l2room3"}, {"name": "spawn", "type": "string", "value": "spawn_from_l2room2"}]}, {"id": 5, "name": "wolf", "type": "enemy", "x": 240, "y": 32, "width": 16, "height": 16, "rotation": 0, "visible": true, "point": false, "properties": [{"name": "kind", "type": "string", "value": "wolf"}]}, {"id": 6, "name": "pup1", "type": "enemy", "x": 96, "y": 96, "width": 16, "height": 16, "rotation": 0, "visible": true, "point": false, "properties": [{"name": "kind", "type": "string", "value": "wolf_pup"}]}, {"id": 7, "name": "pup2", "type": "enemy", "x": 288, "y": 96, "width": 16, "height": 16, "rotation": 0, "visible": true, "point": false, "properties": [{"name": "kind", "type": "string", "value": "wolf_pup"}]}, {"id": 8, "name": "bat1", "type": "enemy", "x": 128, "y": 224, "width": 16, "height": 16, "rotation": 0, "visible": true, "point": false, "properties": [{"name": "kind", "type": "string", "value": "red_bat"}]}, {"id": 9, "name": "bat2", "type": "enemy", "x": 256, "y": 224, "width": 16, "height": 16, "rotation": 0, "visible": true, "point": false, "properties": [{"name": "kind", "type": "string", "value": "red_bat"}]}]}]}