{"compressionlevel":-1,"height":18,"width":25,"infinite":false,"orientation":"orthogonal","renderorder":"right-down","tiledversion":"1.12.1","type":"map","version":"1.10","tilewidth":16,"tileheight":16,"nextlayerid":3,"nextobjectid":12,"tilesets":[{"columns":12,"firstgid":1,"image":"../kenney/Tilemap/tilemap_packed.png","imageheight":176,"imagewidth":192,"margin":0,"spacing":0,"name":"kenney_tiny_dungeon","tilecount":132,"tileheight":16,"tilewidth":16}],"layers":[{"id":1,"name":"Tile Layer 1","type":"tilelayer","visible":true,"opacity":1,"x":0,"y":0,"width":25,"height":18,"data":[15,15,15,15,15,15,15,15,15,15,15,15,46,15,15,15,15,15,15,15,15,15,15,15,15,15,1,1,1,1,1,1,1,1,1,1,1,1,25,1,1,1,1,1,1,25,1,1,1,15,15,1,1,1,1,1,1,1,25,25,1,1,1,1,1,1,1,1,1,1,1,1,1,25,15,15,1,1,1,1,1,1,1,1,1,25,1,1,25,1,1,1,1,1,1,25,1,1,1,15,15,1,1,1,1,1,56,1,1,1,1,43,1,1,1,1,1,1,56,1,1,1,1,25,15,15,1,1,1,1,1,1,1,1,43,1,1,1,1,1,1,1,1,1,1,1,1,1,1,15,15,1,1,1,1,1,1,1,1,1,1,15,15,15,1,1,1,1,1,1,1,1,1,1,15,15,1,1,1,1,1,1,1,1,1,1,15,15,15,1,1,1,1,1,1,1,1,1,1,15,15,1,1,1,1,1,1,1,1,1,1,25,15,1,1,1,1,1,1,1,1,1,1,1,15,46,1,25,1,1,1,1,1,1,1,1,1,75,1,1,1,1,1,1,1,1,1,1,1,15,15,1,1,1,1,1,1,1,1,1,1,1,15,25,1,1,1,1,1,43,1,1,43,1,15,15,1,1,1,1,1,1,1,1,1,1,15,15,15,1,1,43,1,43,1,1,1,1,1,15,15,1,1,1,25,1,1,1,1,1,1,15,15,15,1,1,1,1,1,1,1,1,1,1,15,15,1,1,43,25,1,1,1,1,1,1,1,1,1,1,1,1,1,1,1,1,1,1,1,15,15,1,1,1,1,1,57,1,1,1,1,1,1,43,1,1,1,1,57,1,1,43,1,1,15,15,1,1,1,1,1,1,1,1,1,1,1,43,1,1,1,1,1,1,43,1,25,1,43,15,15,1,1,1,1,1,1,1,1,1,1,1,1,1,1,1,1,1,1,43,1,1,1,1,15,15,15,15,15,15,15,15,15,15,15,15,15,15,15,15,15,15,15,15,15,15,15,15,15,15]},{"id":2,"name":"Objects","type":"objectgroup","visible":true,"opacity":1,"x":0,"y":0,"draworder":"topdown","objects":[{"id":1,"name":"spawn_from_room2","type":"spawn","rotation":0,"visible":true,"x":32,"y":144,"width":16,"height":16},{"id":2,"name":"spawn_from_boss","type":"spawn","rotation":0,"visible":true,"x":192,"y":32,"width":16,"height":16},{"id":3,"name":"door_west","type":"door","rotation":0,"visible":true,"x":0,"y":144,"width":16,"height":16,"properties":[{"name":"target","type":"string","value":"room2"},{"name":"spawn","type":"string","value":"spawn_from_room3"}]},{"id":4,"name":"door_north","type":"door","rotation":0,"visible":true,"x":192,"y":0,"width":16,"height":16,"properties":[{"name":"target","type":"string","value":"boss"},{"name":"spawn","type":"string","value":"spawn_from_room3"}]},{"id":5,"name":"sign_room3","type":"sign","rotation":0,"visible":true,"x":224,"y":32,"width":16,"height":16,"properties":[{"name":"signId","type":"string","value":"sign_room3_gate"}]},{"id":9,"name":"warden_rat_fire","type":"enemy","rotation":0,"visible":true,"x":288,"y":144,"width":16,"height":16,"properties":[{"name":"kind","type":"string","value":"warden_rat_fire"}]},{"id":10,"name":"warden_rat_ice","type":"enemy","rotation":0,"visible":true,"x":96,"y":144,"width":16,"height":16,"properties":[{"name":"kind","type":"string","value":"warden_rat_ice"}]},{"id":11,"name":"green_blob1","type":"enemy","rotation":0,"visible":true,"x":256,"y":112,"width":16,"height":16,"properties":[{"name":"kind","type":"string","value":"green_blob"}]}]}]}