{"compressionlevel":-1,"height":18,"width":25,"infinite":false,"orientation":"orthogonal","renderorder":"right-down","tiledversion":"1.12.1","type":"map","version":"1.10","tilewidth":16,"tileheight":16,"nextlayerid":3,"nextobjectid":34,"tilesets":[{"columns":12,"firstgid":1,"image":"../kenney/Tilemap/tilemap_packed.png","imageheight":176,"imagewidth":192,"margin":0,"spacing":0,"name":"kenney_tiny_dungeon","tilecount":132,"tileheight":16,"tilewidth":16}],"layers":[{"id":1,"name":"Tile Layer 1","type":"tilelayer","visible":true,"opacity":1,"x":0,"y":0,"width":25,"height":18,"data":[15,15,15,15,15,15,15,15,15,15,15,15,15,15,15,15,15,15,15,15,15,15,15,15,15,15,1,1,1,1,1,1,15,1,1,1,1,1,1,1,1,1,1,15,1,1,1,1,1,15,15,1,1,1,1,1,1,15,1,1,1,1,1,1,1,1,1,1,15,1,1,1,1,1,15,15,1,1,1,1,1,1,15,1,1,1,1,1,1,1,1,1,1,15,1,1,1,1,1,15,15,1,1,1,1,1,1,15,1,1,1,1,1,1,1,1,1,1,15,1,1,1,1,1,15,15,1,1,1,1,1,1,15,1,1,1,1,1,15,1,1,1,1,15,1,1,1,1,1,15,15,1,1,1,1,1,1,15,1,1,1,1,1,15,1,1,1,1,15,1,1,1,1,1,15,15,1,1,1,1,1,1,15,1,1,1,1,1,15,1,1,1,1,15,1,1,1,1,1,15,15,1,1,1,1,1,1,15,1,1,1,1,1,15,1,1,1,1,15,1,1,1,1,1,15,15,1,1,1,1,1,1,15,1,1,1,1,1,15,1,1,1,1,15,1,1,1,1,1,1,15,1,1,1,1,1,1,15,1,1,1,1,1,15,1,1,1,1,15,1,1,1,1,1,15,15,1,1,1,1,1,1,15,1,1,1,1,1,15,1,1,1,1,15,1,1,1,1,1,15,15,1,1,1,1,1,1,15,1,1,1,1,1,15,1,1,1,1,15,1,1,1,1,1,15,15,1,1,1,1,1,1,1,1,1,1,1,1,15,1,1,1,1,1,1,1,1,1,1,15,15,1,1,1,1,1,1,1,1,1,1,1,1,15,1,1,1,1,1,1,1,1,1,1,15,15,1,1,1,1,1,1,1,1,1,1,1,1,15,1,1,1,1,1,1,1,1,1,1,15,15,1,1,1,1,1,1,1,1,1,1,1,1,15,1,1,1,1,1,1,1,1,1,1,15,15,15,15,15,15,15,15,15,15,15,15,15,15,15,15,15,15,15,15,15,15,15,15,15,15]},{"id":2,"name":"Objects","type":"objectgroup","visible":true,"opacity":1,"x":0,"y":0,"draworder":"topdown","objects":[{"id":1,"name":"spawn_default","type":"spawn","rotation":0,"visible":true,"x":48,"y":144,"width":16,"height":16},{"id":2,"name":"spawn_from_room2","type":"spawn","rotation":0,"visible":true,"x":352,"y":144,"width":16,"height":16},{"id":3,"name":"door_east","type":"door","rotation":0,"visible":true,"x":384,"y":144,"width":16,"height":16,"properties":[{"name":"target","type":"string","value":"room2"},{"name":"spawn","type":"string","value":"spawn_from_room1"}]},{"id":4,"name":"sign_room1","type":"sign","rotation":0,"visible":true,"x":80,"y":128,"width":16,"height":16,"properties":[{"name":"signId","type":"string","value":"sign_room1_entry"}]},{"id":29,"name":"warden_blob1","type":"enemy","rotation":0,"visible":true,"x":336,"y":144,"width":16,"height":16,"properties":[{"name":"kind","type":"string","value":"warden_blob"}]},{"id":30,"name":"grey_rat_c1","type":"enemy","rotation":0,"visible":true,"x":80,"y":208,"width":16,"height":16,"properties":[{"name":"kind","type":"string","value":"grey_rat"}]},{"id":31,"name":"red_bat_c2","type":"enemy","rotation":0,"visible":true,"x":160,"y":208,"width":16,"height":16,"properties":[{"name":"kind","type":"string","value":"red_bat"}]},{"id":32,"name":"grey_rat_c3","type":"enemy","rotation":0,"visible":true,"x":240,"y":64,"width":16,"height":16,"properties":[{"name":"kind","type":"string","value":"grey_rat"}]},{"id":33,"name":"red_bat_c4","type":"enemy","rotation":0,"visible":true,"x":336,"y":208,"width":16,"height":16,"properties":[{"name":"kind","type":"string","value":"red_bat"}]}]}]}