{"compressionlevel":-1,"height":18,"width":25,"infinite":false,"orientation":"orthogonal","renderorder":"right-down","tiledversion":"1.12.1","type":"map","version":"1.10","tilewidth":16,"tileheight":16,"nextlayerid":3,"nextobjectid":13,"tilesets":[{"columns":12,"firstgid":1,"image":"../kenney/Tilemap/tilemap_packed.png","imageheight":176,"imagewidth":192,"margin":0,"spacing":0,"name":"kenney_tiny_dungeon","tilecount":132,"tileheight":16,"tilewidth":16}],"layers":[{"id":1,"name":"Tile Layer 1","type":"tilelayer","visible":true,"opacity":1,"x":0,"y":0,"width":25,"height":18,"data":[15,15,15,15,15,15,15,15,15,15,15,15,15,15,15,15,15,15,15,15,15,15,15,15,15,15,1,1,1,1,1,1,1,1,1,1,1,1,1,1,1,1,1,1,1,1,1,1,1,15,15,1,1,1,1,1,1,1,1,1,1,1,1,1,1,1,1,1,1,1,1,1,1,1,15,15,1,1,1,1,1,15,1,1,1,1,1,1,1,1,1,1,1,1,1,1,1,1,1,15,15,1,1,1,1,1,15,1,1,1,1,1,1,1,1,1,1,15,1,1,1,1,1,1,15,15,1,1,1,1,1,1,1,1,1,1,1,1,1,1,1,1,15,1,1,1,1,1,1,15,15,1,1,1,1,1,1,1,1,1,1,1,1,1,1,1,1,1,1,1,1,1,1,1,15,15,1,1,1,1,1,1,1,1,1,1,1,1,1,1,1,1,1,1,1,1,1,1,1,15,15,1,1,1,1,1,1,1,1,1,15,1,1,1,1,1,1,1,1,1,1,1,1,1,15,1,1,1,1,1,1,1,1,1,1,15,1,1,1,1,1,1,1,1,1,1,1,1,1,1,15,1,1,1,1,1,1,1,1,1,1,1,1,1,1,1,1,1,1,1,1,1,1,1,15,15,1,1,1,1,1,1,1,1,1,1,1,1,1,15,1,1,1,1,1,1,1,1,1,15,15,1,1,1,1,1,1,1,1,1,1,1,1,1,15,1,1,15,1,1,1,1,1,1,15,15,1,1,1,1,1,1,1,1,1,1,1,1,1,1,1,1,15,1,1,1,1,1,1,15,15,1,1,1,1,1,1,1,1,1,1,1,1,1,1,1,1,1,1,1,1,1,1,1,15,15,1,1,1,1,1,1,1,1,1,1,1,1,1,1,1,1,1,1,1,1,1,1,1,15,15,1,1,1,1,1,1,1,1,1,1,1,1,1,1,1,1,1,1,1,1,1,1,1,15,15,15,15,15,15,15,15,15,15,15,15,15,15,15,15,15,15,15,15,15,15,15,15,15,15]},{"id":2,"name":"Objects","type":"objectgroup","visible":true,"opacity":1,"x":0,"y":0,"draworder":"topdown","objects":[{"id":1,"name":"spawn_from_room1","type":"spawn","rotation":0,"visible":true,"x":32,"y":144,"width":16,"height":16},{"id":2,"name":"spawn_from_room3","type":"spawn","rotation":0,"visible":true,"x":352,"y":144,"width":16,"height":16},{"id":3,"name":"door_west","type":"door","rotation":0,"visible":true,"x":0,"y":144,"width":16,"height":16,"properties":[{"name":"target","type":"string","value":"room1"},{"name":"spawn","type":"string","value":"spawn_from_room2"}]},{"id":4,"name":"door_east","type":"door","rotation":0,"visible":true,"x":384,"y":144,"width":16,"height":16,"properties":[{"name":"target","type":"string","value":"room3"},{"name":"spawn","type":"string","value":"spawn_from_room2"}]},{"id":5,"name":"sign_room2","type":"sign","rotation":0,"visible":true,"x":192,"y":96,"width":16,"height":16,"properties":[{"name":"signId","type":"string","value":"sign_room2_hall"}]},{"id":9,"name":"warden6","type":"enemy","rotation":0,"visible":true,"x":336,"y":144,"width":16,"height":16,"properties":[{"name":"kind","type":"string","value":"warden_bat"}]},{"id":10,"name":"grey_rat_g1","type":"enemy","rotation":0,"visible":true,"x":112,"y":64,"width":16,"height":16,"properties":[{"name":"kind","type":"string","value":"grey_rat"}]},{"id":11,"name":"grey_rat_g2","type":"enemy","rotation":0,"visible":true,"x":192,"y":144,"width":16,"height":16,"properties":[{"name":"kind","type":"string","value":"grey_rat"}]},{"id":12,"name":"red_bat_g3","type":"enemy","rotation":0,"visible":true,"x":240,"y":176,"width":16,"height":16,"properties":[{"name":"kind","type":"string","value":"red_bat"}]}]}]}